icons/svg/camera_48.svg

<?xml version="1.0" encoding="UTF-8"?>
<svg width="48px" height="48px" viewBox="0 0 48 48" version="1.1" xmlns="http://www.w3.org/2000/svg" xmlns:xlink="http://www.w3.org/1999/xlink">
    <!-- Generator: Sketch 57.1 (83088) - https://sketch.com -->
    <title>camera_48</title>
    <desc>Created with Sketch.</desc>
    <g id="Icons-Webex" stroke="none" stroke-width="1" fill="none" fill-rule="evenodd">
        <g id="activities/camera_48" fill="#171B1F">
            <path d="M46,32.5879 C46,33.0589 45.706,33.3459 45.431,33.4579 C45.097,33.5939 44.743,33.5179 44.486,33.2529 L36,24.5079 L36,23.4919 L44.486,14.7479 C44.742,14.4839 45.094,14.4069 45.431,14.5429 C45.706,14.6539 46,14.9419 46,15.4119 L46,32.5879 Z M35,35.2279 C35,37.3079 33.308,38.9999 31.228,38.9999 L5.772,38.9999 C3.692,38.9999 2,37.3079 2,35.2279 L2,12.7729 C2,10.6919 3.692,8.9999 5.772,8.9999 L31.228,8.9999 C33.308,8.9999 35,10.6919 35,12.7729 L35,35.2279 Z M45.806,13.6159 C45.094,13.3259 44.311,13.4939 43.77,14.0509 L36,22.0569 L36,12.7729 C36,10.1409 33.859,7.9999 31.228,7.9999 L5.772,7.9999 C3.141,7.9999 1,10.1409 1,12.7729 L1,35.2279 C1,37.8589 3.141,39.9999 5.772,39.9999 L31.228,39.9999 C33.859,39.9999 36,37.8589 36,35.2279 L36,25.9429 L43.77,33.9489 C44.135,34.3259 44.609,34.5249 45.1,34.5249 C45.335,34.5249 45.574,34.4789 45.806,34.3839 C46.531,34.0899 47,33.3849 47,32.5879 L47,15.4119 C47,14.6149 46.531,13.9099 45.806,13.6159 L45.806,13.6159 Z" id="fill"></path>
        </g>
    </g>
</svg>

<svg width="48" height="48" xmlns="http://www.w3.org/2000/svg"><path d="M46 32.588a.916.916 0 01-.569.87.84.84 0 01-.945-.205L36 24.508v-1.016l8.486-8.744a.84.84 0 01.945-.205.915.915 0 01.569.869v17.176zm-11 2.64A3.776 3.776 0 0131.228 39H5.772A3.776 3.776 0 012 35.228V12.773A3.776 3.776 0 015.772 9h25.456A3.776 3.776 0 0135 12.773v22.455zm10.806-21.612a1.834 1.834 0 00-2.036.435L36 22.057v-9.284A4.778 4.778 0 0031.228 8H5.772A4.778 4.778 0 001 12.773v22.455A4.778 4.778 0 005.772 40h25.456A4.778 4.778 0 0036 35.228v-9.285l7.77 8.006c.365.377.839.576 1.33.576a1.923 1.923 0 001.9-1.937V15.412c0-.797-.469-1.502-1.194-1.796z" fill="#171B1F" fill-rule="evenodd"/></svg>
